teeny/solid/align-text-left.svg

<svg viewBox="0 0 15 15" xmlns="http://www.w3.org/2000/svg"><path fill-rule="evenodd" d="M15 4H0V3h15v1ZM6 8H0V7h6v1Zm3 4H0v-1h9v1Z"/></svg>

<svg width="15" height="15" viewBox="0 0 15 15" fill="none" xmlns="http://www.w3.org/2000/svg">
<path fill-rule="evenodd" clip-rule="evenodd" d="M15 4H0V3H15V4ZM6 8H0V7H6V8ZM9 12H0V11H9V12Z" fill="black"/>
</svg>
